!!!COM: Anon.
!!!OTL: Song of the Buffalo
!!!ODT: <1918//
!!!MPN: Marolipa [Buffalo Bull Head, Ben Benson]
!!!MLC: Fort Berthold Reservation, North Dakota, United States of America
!! Song was recorded during either the summer of 1912, 1915, or 1918.
!!!AGN: monody
!!!AST: Songs Connected With Eagle Catching
!!!AMT: irregular
!!!RWG: Transcribed pitches, durations, and meters are only approximate.
!! Drum not recorded.
**kern
*ICvox
*Imale
*clefF4
*k[f#]
*M3/4
*MM69
=1-
(12d
12d
12d)
(12d
12d
12d)
8d
16r
16d
=2
(12G
12G
12G)
(12G
12G
12G)
8G
8r
=3
(12d
12d
12d)
(12d
12d
12d)
8d
16r
16d
=4
(12G
12G
12G)
(12G
12G
12G)
8G
16r
16d
=5
(12d
12d
12d)
(12G
12G
12G)
8B
16r
16B
=6
(12G
12G
12G)
(12G
12G
12G)
8G;
16r
16B
*M2/4
=7
4G
8.G
16B
=8
(12G
12G
12G)
8.G
16B
=9
4G
8B
16r
16B
=10
4G
(12B
12B
12B)
=11
4G
8B
16r
16B
=12
(12G
12E
12D)
(12G
12E
12D)
=13
(12G
12E
12D)
4r
==
*-
!!!CNT: Mandan
!!!TXO: Mandan
!!!OCY: United States
!!!OCL: Frances Densmore
!!!YOR: Frances Densmore, "Mandan and Hidatsa Music",
!!!YOR: Bulletin 80, page 70, No. 19
!!!PPR: Smithsonian Institution, Bureau of American Ethnology
!!!PPR: Government Printing Office
!!!PDT: 1923
!!!PPP: Washington, DC, United States of America
!!!YEC: Electronic Copyright 2000 David Huron
!!!YER: August 2000
!!!YEN: United States of America
!!!ENC: David Huron
!!!RDT: August 16, 2000
!!!EEV: Release 1.0
!!!AIN: tom, vox
